Numix/16/status/indicator-keyboard-Ro-4.svg

<?xml version="1.0" encoding="UTF-8" standalone="no"?>
<svg
   xmlns:dc="http://purl.org/dc/elements/1.1/"
   xmlns:cc="http://creativecommons.org/ns#"
   xmlns:rdf="http://www.w3.org/1999/02/22-rdf-syntax-ns#"
   xmlns:svg="http://www.w3.org/2000/svg"
   xmlns="http://www.w3.org/2000/svg"
   xmlns:sodipodi="http://sodipodi.sourceforge.net/DTD/sodipodi-0.dtd"
   xmlns:inkscape="http://www.inkscape.org/namespaces/inkscape"
   viewBox="0 0 16 16"
   id="svg2"
   version="1.1"
   inkscape:version="0.91 r13725"
   sodipodi:docname="indicator-keyboard-Ro-4.svg">
  <metadata
     id="metadata14">
    <rdf:RDF>
      <cc:Work
         rdf:about="">
        <dc:format>image/svg+xml</dc:format>
        <dc:type
           rdf:resource="http://purl.org/dc/dcmitype/StillImage" />
      </cc:Work>
    </rdf:RDF>
  </metadata>
  <defs
     id="defs12" />
  <sodipodi:namedview
     pagecolor="#ffffff"
     bordercolor="#666666"
     borderopacity="1"
     objecttolerance="10"
     gridtolerance="10"
     guidetolerance="10"
     inkscape:pageopacity="0"
     inkscape:pageshadow="2"
     inkscape:window-width="640"
     inkscape:window-height="480"
     id="namedview10"
     showgrid="false"
     inkscape:zoom="14.75"
     inkscape:cx="8"
     inkscape:cy="8"
     inkscape:window-x="65"
     inkscape:window-y="24"
     inkscape:window-maximized="0"
     inkscape:current-layer="svg2" />
  <path
     style="fill:#ececec;fill-opacity:1"
     d="M 1.5996094 0 C 0.71320937 2.9605947e-16 0 0.71320937 0 1.5996094 L 0 14.400391 C 2.9605947e-16 15.286791 0.71320937 16 1.5996094 16 L 14.400391 16 C 15.286791 16 16 15.286791 16 14.400391 L 16 1.5996094 C 16 0.71320937 15.286791 0 14.400391 0 L 1.5996094 0 z M 3.0703125 4.8046875 C 3.9283125 4.8046875 4.5738594 4.9670156 5.0058594 5.2910156 C 5.4438594 5.6150156 5.6621094 6.0944688 5.6621094 6.7304688 C 5.6621094 7.1984687 5.5409219 7.5678906 5.2949219 7.8378906 C 5.0489219 8.1078906 4.7242656 8.3038281 4.3222656 8.4238281 C 4.4182656 8.5438281 4.5414063 8.7042031 4.6914062 8.9082031 C 4.8474062 9.1122031 5.0059687 9.3379844 5.1679688 9.5839844 C 5.3299688 9.8239844 5.4885312 10.075844 5.6445312 10.339844 C 5.8005313 10.603844 5.9330156 10.855703 6.0410156 11.095703 L 5.3847656 11.095703 C 5.2587656 10.855703 5.1207031 10.616953 4.9707031 10.376953 C 4.8267031 10.136953 4.6755312 9.9055939 4.5195312 9.6835938 C 4.3695312 9.4555937 4.222125 9.2447344 4.078125 9.0527344 L 3.7011719 8.5488281 C 3.5091719 8.5668281 3.317 8.5761719 3.125 8.5761719 L 2.1171875 8.5761719 L 2.1171875 11.095703 L 1.5058594 11.095703 L 1.5058594 4.9765625 C 1.7218594 4.9165625 1.9737188 4.8736094 2.2617188 4.8496094 C 2.5557187 4.8196094 2.8243125 4.8046875 3.0703125 4.8046875 z M 3.1425781 5.3359375 C 2.9145781 5.3359375 2.7150156 5.3452813 2.5410156 5.3632812 C 2.3730156 5.3752812 2.2311875 5.3864375 2.1171875 5.3984375 L 2.1171875 8.0546875 L 2.9628906 8.0546875 C 3.2448906 8.0546875 3.5116719 8.0415781 3.7636719 8.0175781 C 4.0156719 7.9875781 4.235875 7.9278906 4.421875 7.8378906 C 4.607875 7.7418906 4.7533281 7.6075937 4.8613281 7.4335938 C 4.9693281 7.2595937 5.0234375 7.0226562 5.0234375 6.7226562 C 5.0234375 6.4466563 4.9693281 6.2171094 4.8613281 6.0371094 C 4.7533281 5.8571094 4.6134531 5.7172344 4.4394531 5.6152344 C 4.2654531 5.5072344 4.0639375 5.4344375 3.8359375 5.3984375 C 3.6139375 5.3564375 3.3825781 5.3359375 3.1425781 5.3359375 z M 8.8691406 6.3359375 C 9.1811406 6.3359375 9.4666094 6.395625 9.7246094 6.515625 C 9.9826093 6.629625 10.204625 6.7937656 10.390625 7.0097656 C 10.582625 7.2197656 10.728078 7.4753906 10.830078 7.7753906 C 10.938078 8.0753906 10.992188 8.4074375 10.992188 8.7734375 C 10.992188 9.1394375 10.938078 9.4734375 10.830078 9.7734375 C 10.728078 10.073438 10.582625 10.327109 10.390625 10.537109 C 10.204625 10.747109 9.9826093 10.913203 9.7246094 11.033203 C 9.4666094 11.147203 9.1811406 11.203125 8.8691406 11.203125 C 8.5571406 11.203125 8.2716719 11.147203 8.0136719 11.033203 C 7.7556719 10.913203 7.5298906 10.747109 7.3378906 10.537109 C 7.1518906 10.327109 7.0064375 10.073438 6.8984375 9.7734375 C 6.7964375 9.4734375 6.7441406 9.1394375 6.7441406 8.7734375 C 6.7441406 8.4074375 6.7964375 8.0753906 6.8984375 7.7753906 C 7.0064375 7.4753906 7.1518906 7.2197656 7.3378906 7.0097656 C 7.5298906 6.7937656 7.7556719 6.629625 8.0136719 6.515625 C 8.2716719 6.395625 8.5571406 6.3359375 8.8691406 6.3359375 z M 8.8691406 6.8652344 C 8.4071406 6.8652344 8.0414844 7.0406719 7.7714844 7.3886719 C 7.5014844 7.7306719 7.3652344 8.1914375 7.3652344 8.7734375 C 7.3652344 9.3554375 7.5014844 9.818156 7.7714844 10.160156 C 8.0414844 10.502156 8.4071406 10.673828 8.8691406 10.673828 C 9.3311406 10.673828 9.6967969 10.502156 9.9667969 10.160156 C 10.236797 9.8181561 10.371094 9.3554375 10.371094 8.7734375 C 10.371094 8.1914375 10.236797 7.7306719 9.9667969 7.3886719 C 9.6967969 7.0406719 9.3311406 6.8652344 8.8691406 6.8652344 z M 13.59375 8.8417969 L 13.992188 8.8417969 L 13.992188 11.486328 L 14.494141 11.486328 L 14.494141 11.796875 L 13.992188 11.796875 L 13.992188 12.896484 L 13.617188 12.896484 L 13.617188 11.796875 L 11.78125 11.796875 L 11.78125 11.5625 C 11.85145 11.3753 11.947466 11.163687 12.072266 10.929688 C 12.200966 10.695688 12.345959 10.456637 12.505859 10.210938 C 12.665759 9.9652374 12.840144 9.7261874 13.027344 9.4921875 C 13.214544 9.2542875 13.40265 9.0367969 13.59375 8.8417969 z M 13.617188 9.2695312 C 13.480688 9.4099312 13.341572 9.5706063 13.201172 9.7539062 C 13.060772 9.9372063 12.927528 10.129225 12.798828 10.328125 C 12.674028 10.523125 12.556466 10.719069 12.447266 10.917969 C 12.338066 11.116869 12.245975 11.306928 12.171875 11.486328 L 13.617188 11.486328 L 13.617188 9.2695312 z "
     id="path4" />
</svg>

<svg xmlns="http://www.w3.org/2000/svg" viewBox="0 0 16 16">
 <path d="m 1.6 0 c -0.886 0 -1.6 0.713 -1.6 1.6 l 0 12.801 c 0 0.886 0.713 1.6 1.6 1.6 l 12.801 0 c 0.886 0 1.6 -0.713 1.6 -1.6 l 0 -12.801 c 0 -0.886 -0.713 -1.6 -1.6 -1.6 l -12.801 0 z m 1.471 4.805 c 0.858 0 1.504 0.162 1.936 0.486 c 0.438 0.324 0.656 0.803 0.656 1.439 c 0 0.468 -0.121 0.837 -0.367 1.107 c -0.246 0.27 -0.571 0.466 -0.973 0.586 c 0.096 0.12 0.219 0.28 0.369 0.484 c 0.156 0.204 0.315 0.43 0.477 0.676 c 0.162 0.24 0.321 0.492 0.477 0.756 c 0.156 0.264 0.288 0.516 0.396 0.756 l -0.656 0 c -0.126 -0.24 -0.264 -0.479 -0.414 -0.719 c -0.144 -0.24 -0.295 -0.471 -0.451 -0.693 c -0.15 -0.228 -0.297 -0.439 -0.441 -0.631 l -0.377 -0.504 c -0.192 0.018 -0.384 0.027 -0.576 0.027 l -1.01 0 l 0 2.52 l -0.611 0 l 0 -6.119 c 0.216 -0.06 0.468 -0.103 0.756 -0.127 c 0.294 -0.03 0.563 -0.045 0.809 -0.045 z m 0.072 0.531 c -0.228 0 -0.428 0.009 -0.602 0.027 c -0.168 0.012 -0.31 0.023 -0.424 0.035 l 0 2.656 l 0.846 0 c 0.282 0 0.549 -0.013 0.801 -0.037 c 0.252 -0.03 0.472 -0.09 0.658 -0.18 c 0.186 -0.096 0.331 -0.23 0.439 -0.404 c 0.108 -0.174 0.162 -0.411 0.162 -0.711 c 0 -0.276 -0.054 -0.506 -0.162 -0.686 c -0.108 -0.18 -0.248 -0.32 -0.422 -0.422 c -0.174 -0.108 -0.376 -0.181 -0.604 -0.217 c -0.222 -0.042 -0.453 -0.063 -0.693 -0.063 z m 5.727 1 c 0.312 0 0.597 0.06 0.855 0.18 c 0.258 0.114 0.48 0.278 0.666 0.494 c 0.192 0.21 0.337 0.466 0.439 0.766 c 0.108 0.3 0.162 0.632 0.162 0.998 c 0 0.366 -0.054 0.7 -0.162 1 c -0.102 0.3 -0.247 0.554 -0.439 0.764 c -0.186 0.21 -0.408 0.376 -0.666 0.496 c -0.258 0.114 -0.543 0.17 -0.855 0.17 c -0.312 0 -0.597 -0.056 -0.855 -0.17 c -0.258 -0.12 -0.484 -0.286 -0.676 -0.496 c -0.186 -0.21 -0.331 -0.464 -0.439 -0.764 c -0.102 -0.3 -0.154 -0.634 -0.154 -1 c 0 -0.366 0.052 -0.698 0.154 -0.998 c 0.108 -0.3 0.253 -0.556 0.439 -0.766 c 0.192 -0.216 0.418 -0.38 0.676 -0.494 c 0.258 -0.12 0.543 -0.18 0.855 -0.18 z m 0 0.529 c -0.462 0 -0.828 0.175 -1.098 0.523 c -0.27 0.342 -0.406 0.803 -0.406 1.385 c 0 0.582 0.136 1.045 0.406 1.387 c 0.27 0.342 0.636 0.514 1.098 0.514 c 0.462 0 0.828 -0.172 1.098 -0.514 c 0.27 -0.342 0.404 -0.805 0.404 -1.387 c 0 -0.582 -0.134 -1.043 -0.404 -1.385 c -0.27 -0.348 -0.636 -0.523 -1.098 -0.523 z m 4.725 1.977 l 0.398 0 l 0 2.645 l 0.502 0 l 0 0.311 l -0.502 0 l 0 1.1 l -0.375 0 l 0 -1.1 l -1.836 0 l 0 -0.234 c 0.07 -0.187 0.166 -0.399 0.291 -0.633 c 0.129 -0.234 0.274 -0.473 0.434 -0.719 c 0.16 -0.246 0.334 -0.485 0.521 -0.719 c 0.187 -0.238 0.375 -0.455 0.566 -0.65 z m 0.023 0.428 c -0.136 0.14 -0.276 0.301 -0.416 0.484 c -0.14 0.183 -0.274 0.375 -0.402 0.574 c -0.125 0.195 -0.242 0.391 -0.352 0.59 c -0.109 0.199 -0.201 0.389 -0.275 0.568 l 1.445 0 l 0 -2.217 z" style="fill:#ececec;fill-opacity:1"/>
</svg>
